icon/lg/brotli.svg

<?xml version="1.0" encoding="UTF-8"?>
<svg viewBox="0 0 256 256" version="1.1" xmlns="http://www.w3.org/2000/svg" xmlns:xlink="http://www.w3.org/1999/xlink" preserveAspectRatio="xMidYMid" height="1em" width="1em">
  <g>
    <path d="M94.8793826,251.607827 C26.6126647,233.315815 -13.899839,163.1461 4.39217292,94.8793826 C22.6841848,26.6126647 92.8538996,-13.899839 161.120617,4.39217292 C229.387335,22.6841848 269.899839,92.8538996 251.607827,161.120617 C233.315815,229.387335 163.1461,269.899839 94.8793826,251.607827 Z" fill="#EEAA33"/>
    <path d="M101.606901,226.500386 C88.0068357,222.85626 88.7983974,175.801986 103.374903,121.401725 C117.951409,67.001464 140.793034,25.8554871 154.393099,29.4996137 C167.993164,33.1437402 167.201603,80.1980135 152.625097,134.598275 C138.048591,188.998536 115.206966,230.144513 101.606901,226.500386 Z" fill="#FFFFFF"/>
    <path d="M176.366192,193.74588 C169.566159,191.923817 169.96194,168.39668 177.250193,141.196549 C184.538446,113.996419 195.959258,93.4234304 202.759291,95.2454937 C209.559324,97.0675569 209.163543,120.594694 201.87529,147.794824 C194.587037,174.994955 183.166225,195.567943 176.366192,193.74588 Z" fill="#FFFFFF"/>
    <path d="M53.2407091,160.754506 C46.4406764,158.932443 46.8364572,135.405306 54.1247102,108.205176 C61.4129633,81.0050452 72.8337754,60.4320567 79.633808,62.25412 C86.4338407,64.0761832 86.0380599,87.6033199 78.7498068,114.803451 C71.4615538,142.003581 60.0407417,162.57657 53.2407091,160.754506 Z" fill="#FFFFFF"/>
  </g>
</svg>

<svg width="256" height="256" xmlns="http://www.w3.org/2000/svg" preserveAspectRatio="xMidYMid"><path d="M94.88 251.608C26.612 233.316-13.9 163.146 4.391 94.879 22.684 26.613 92.854-13.9 161.121 4.392c68.266 18.292 108.779 88.462 90.487 156.729-18.292 68.266-88.462 108.779-156.729 90.487Z" fill="#EA3"/><path d="M101.607 226.5c-13.6-3.644-12.809-50.698 1.768-105.098 14.576-54.4 37.418-95.547 51.018-91.902 13.6 3.644 12.809 50.698-1.768 105.098-14.576 54.4-37.418 95.547-51.018 91.902ZM176.366 193.746c-6.8-1.822-6.404-25.35.884-52.55 7.288-27.2 18.71-47.773 25.51-45.95 6.8 1.822 6.404 25.349-.885 52.549-7.288 27.2-18.709 47.773-25.509 45.95ZM53.24 160.755c-6.8-1.823-6.404-25.35.885-52.55 7.288-27.2 18.709-47.773 25.509-45.95 6.8 1.821 6.404 25.348-.884 52.548-7.288 27.2-18.71 47.774-25.51 45.952Z" fill="#FFF"/></svg>
